static/img/in-field/lists-default.svg

<svg fill="none" height="57" viewBox="0 0 511 57" width="511" xmlns="http://www.w3.org/2000/svg" xmlns:xlink="http://www.w3.org/1999/xlink"><mask id="a" fill="#fff"><path d="m.5.399902h510v55.999998h-510z" fill="#fff"/></mask><path d="m.5.399902h510v55.999998h-510z" fill="#fff"/><path d="m18.6484 37.3999v-15.7051h1.8262v14.0723h6.9717v1.6328zm13.2588-11.7734v11.7734h-1.7832v-11.7734zm-.8701-4.4043c.2936 0 .5443.0966.752.29.2148.1862.3222.4798.3222.8809 0 .3938-.1074.6875-.3222.8808-.2077.1934-.4584.2901-.752.2901-.3079 0-.5657-.0967-.7734-.2901-.2005-.1933-.3008-.487-.3008-.8808 0-.4011.1003-.6947.3008-.8809.2077-.1934.4655-.29.7734-.29zm12.5176 12.955c0 .752-.1898 1.3858-.5693 1.9014-.3724.5085-.9096.8916-1.6114 1.1494-.6946.2578-1.5254.3867-2.4922.3867-.8235 0-1.5361-.0644-2.1377-.1933-.6015-.1289-1.1279-.3115-1.5791-.5479v-1.6435c.4799.2363 1.0528.4512 1.7188.6445.666.1934 1.3463.2901 2.041.2901 1.0169 0 1.7546-.1648 2.2129-.4942s.6875-.777.6875-1.3428c0-.3222-.0931-.6051-.2793-.8486-.179-.2506-.4834-.4906-.9131-.7197-.4297-.2364-1.0241-.4942-1.7832-.7735-.7519-.2864-1.4036-.5693-1.9551-.8486-.5442-.2865-.9668-.6338-1.2675-1.042-.2937-.4082-.4405-.9381-.4405-1.5898 0-.9955.4011-1.7582 1.2031-2.2881.8093-.5371 1.8692-.8057 3.1797-.8057.709 0 1.3715.0716 1.9873.2149.6231.136 1.2032.3222 1.7403.5586l-.6016 1.4287c-.487-.2077-1.0062-.3832-1.5576-.5264s-1.1136-.2148-1.6865-.2148c-.8236 0-1.4574.136-1.9014.4082-.4368.2721-.6553.6445-.6553 1.1171 0 .3653.1003.6661.3008.9024.2077.2363.5371.4583.9883.666s1.0456.4512 1.7832.7305c.7376.2721 1.375.555 1.9121.8486.5371.2865.9489.6374 1.2354 1.0527.2936.4082.4404.9346.4404 1.5791zm6.9209 1.9766c.2936 0 .5944-.0251.9023-.0752.308-.0501.5586-.111.752-.1826v1.3857c-.2077.0931-.4977.1719-.8701.2364-.3653.0644-.7233.0966-1.0743.0966-.623 0-1.1888-.1074-1.6972-.3222-.5085-.222-.9167-.5944-1.2246-1.1172-.3008-.5228-.4512-1.2461-.4512-2.1699v-6.9825h-1.6758v-.8701l1.6865-.6982.709-2.5567h1.0742v2.7286h3.4483v1.3964h-3.4483v6.9288c0 .7376.1683 1.289.5049 1.6543.3438.3652.7985.5478 1.3643.5478zm10.5224 1.2461v-15.7051h1.8262v15.7051zm9.9288-1.2461c.2936 0 .5944-.0251.9023-.0752s.5586-.111.752-.1826v1.3857c-.2077.0931-.4978.1719-.8702.2364-.3652.0644-.7233.0966-1.0742.0966-.623 0-1.1888-.1074-1.6972-.3222-.5085-.222-.9167-.5944-1.2247-1.1172-.3007-.5228-.4511-1.2461-.4511-2.1699v-6.9825h-1.6758v-.8701l1.6865-.6982.709-2.5567h1.0742v2.7286h3.4483v1.3964h-3.4483v6.9288c0 .7376.1683 1.289.5049 1.6543.3437.3652.7985.5478 1.3643.5478zm8.8222-10.7422c1.0026 0 1.862.222 2.5781.666.7162.444 1.264 1.0671 1.6436 1.8692.3796.7949.5693 1.7259.5693 2.7929v1.1065h-8.1318c.0215 1.3822.3652 2.4349 1.0313 3.1582.666.7233 1.6041 1.085 2.8144 1.085.7448 0 1.4037-.0681 1.9766-.2041.5729-.1361 1.1673-.3366 1.7832-.6016v1.5684c-.5944.2649-1.1852.4583-1.7725.58-.5801.1218-1.2676.1826-2.0625.1826-1.1315 0-2.1198-.2291-2.9648-.6875-.8379-.4654-1.4896-1.1458-1.9551-2.041s-.6983-1.9909-.6983-3.2871c0-1.2676.2113-2.3633.6338-3.2871.4297-.931 1.0313-1.6471 1.8047-2.1484.7806-.5013 1.6973-.752 2.75-.752zm-.0215 1.461c-.9524 0-1.7115.3115-2.2773.9345-.5658.6231-.9023 1.4932-1.0098 2.6104h6.2305c-.0072-.7018-.1182-1.3177-.333-1.8477-.2077-.5371-.5264-.9524-.9561-1.2461-.4297-.3008-.9811-.4511-1.6543-.4511zm20.8755-1.461c1.296 0 2.273.3402 2.932 1.0205.659.6732.988 1.7582.988 3.2549v7.7129h-1.761v-7.627c0-.9524-.208-1.665-.623-2.1376-.409-.4799-1.017-.7198-1.827-.7198-1.1382 0-1.9653.3295-2.4809.9883-.5157.6589-.7735 1.6292-.7735 2.9111v6.585h-1.7724v-7.627c0-.6373-.0931-1.1673-.2793-1.5898-.1791-.4225-.4512-.7376-.8164-.9453-.3581-.2149-.8129-.3223-1.3643-.3223-.7806 0-1.4072.1612-1.8799.4834-.4726.3223-.8164.8021-1.0312 1.4395-.2077.6302-.3116 1.4072-.3116 2.331v6.2305h-1.7832v-11.7734h1.4395l.2685 1.665h.0967c.2364-.4082.5336-.7519.8916-1.0312.3581-.2793.7591-.4906 1.2032-.6338.444-.1433.9166-.2149 1.4179-.2149.8952 0 1.6436.1683 2.2451.5049.6088.3294 1.0492.8343 1.3213 1.5147h.0967c.3867-.6804.9167-1.1853 1.5898-1.5147.6732-.3366 1.4109-.5049 2.2134-.5049z" fill="#252a2e"/><path d="m510.5 55.3999h-510v2h510z" fill="#a3a6b1" mask="url(#a)"/></svg>

<svg width="511" height="57" viewBox="0 0 511 57" fill="none" xmlns="http://www.w3.org/2000/svg"><mask id="path-1-inside-1_7345_83125" fill="#fff"><path d="M0.5 0.399902H510.5V56.3999H0.5V0.399902Z"/></mask><path d="M0.5 0.399902H510.5V56.3999H0.5V0.399902Z" fill="#fff"/><path d="M18.6484 37.3999V21.6948H20.4746V35.7671H27.4463V37.3999H18.6484ZM31.9072 25.6265V37.3999H30.124V25.6265H31.9072ZM31.0371 21.2222C31.3307 21.2222 31.5814 21.3188 31.7891 21.5122C32.0039 21.6984 32.1113 21.992 32.1113 22.3931C32.1113 22.7869 32.0039 23.0806 31.7891 23.2739C31.5814 23.4673 31.3307 23.564 31.0371 23.564C30.7292 23.564 30.4714 23.4673 30.2637 23.2739C30.0632 23.0806 29.9629 22.7869 29.9629 22.3931C29.9629 21.992 30.0632 21.6984 30.2637 21.5122C30.4714 21.3188 30.7292 21.2222 31.0371 21.2222ZM43.5547 34.1772C43.5547 34.9292 43.3649 35.563 42.9854 36.0786C42.613 36.5871 42.0758 36.9702 41.374 37.228C40.6794 37.4858 39.8486 37.6147 38.8818 37.6147C38.0583 37.6147 37.3457 37.5503 36.7441 37.4214C36.1426 37.2925 35.6162 37.1099 35.165 36.8735V35.23C35.6449 35.4663 36.2178 35.6812 36.8838 35.8745C37.5498 36.0679 38.2301 36.1646 38.9248 36.1646C39.9417 36.1646 40.6794 35.9998 41.1377 35.6704C41.596 35.341 41.8252 34.8934 41.8252 34.3276C41.8252 34.0054 41.7321 33.7225 41.5459 33.479C41.3669 33.2284 41.0625 32.9884 40.6328 32.7593C40.2031 32.5229 39.6087 32.2651 38.8496 31.9858C38.0977 31.6994 37.446 31.4165 36.8945 31.1372C36.3503 30.8507 35.9277 30.5034 35.627 30.0952C35.3333 29.687 35.1865 29.1571 35.1865 28.5054C35.1865 27.5099 35.5876 26.7472 36.3896 26.2173C37.1989 25.6802 38.2588 25.4116 39.5693 25.4116C40.2783 25.4116 40.9408 25.4832 41.5566 25.6265C42.1797 25.7625 42.7598 25.9487 43.2969 26.1851L42.6953 27.6138C42.2083 27.4061 41.6891 27.2306 41.1377 27.0874C40.5863 26.9442 40.0241 26.8726 39.4512 26.8726C38.6276 26.8726 37.9938 27.0086 37.5498 27.2808C37.113 27.5529 36.8945 27.9253 36.8945 28.3979C36.8945 28.7632 36.9948 29.064 37.1953 29.3003C37.403 29.5366 37.7324 29.7586 38.1836 29.9663C38.6348 30.174 39.2292 30.4175 39.9668 30.6968C40.7044 30.9689 41.3418 31.2518 41.8789 31.5454C42.416 31.8319 42.8278 32.1828 43.1143 32.5981C43.4079 33.0063 43.5547 33.5327 43.5547 34.1772ZM50.4756 36.1538C50.7692 36.1538 51.07 36.1287 51.3779 36.0786C51.6859 36.0285 51.9365 35.9676 52.1299 35.896V37.2817C51.9222 37.3748 51.6322 37.4536 51.2598 37.5181C50.8945 37.5825 50.5365 37.6147 50.1855 37.6147C49.5625 37.6147 48.9967 37.5073 48.4883 37.2925C47.9798 37.0705 47.5716 36.6981 47.2637 36.1753C46.9629 35.6525 46.8125 34.9292 46.8125 34.0054V27.0229H45.1367V26.1528L46.8232 25.4546L47.5322 22.8979H48.6064V25.6265H52.0547V27.0229H48.6064V33.9517C48.6064 34.6893 48.7747 35.2407 49.1113 35.606C49.4551 35.9712 49.9098 36.1538 50.4756 36.1538ZM60.998 37.3999V21.6948H62.8242V37.3999H60.998ZM70.9268 36.1538C71.2204 36.1538 71.5212 36.1287 71.8291 36.0786C72.137 36.0285 72.3877 35.9676 72.5811 35.896V37.2817C72.3734 37.3748 72.0833 37.4536 71.7109 37.5181C71.3457 37.5825 70.9876 37.6147 70.6367 37.6147C70.0137 37.6147 69.4479 37.5073 68.9395 37.2925C68.431 37.0705 68.0228 36.6981 67.7148 36.1753C67.4141 35.6525 67.2637 34.9292 67.2637 34.0054V27.0229H65.5879V26.1528L67.2744 25.4546L67.9834 22.8979H69.0576V25.6265H72.5059V27.0229H69.0576V33.9517C69.0576 34.6893 69.2259 35.2407 69.5625 35.606C69.9062 35.9712 70.361 36.1538 70.9268 36.1538ZM79.749 25.4116C80.7516 25.4116 81.611 25.6336 82.3271 26.0776C83.0433 26.5216 83.5911 27.1447 83.9707 27.9468C84.3503 28.7417 84.54 29.6727 84.54 30.7397V31.8462H76.4082C76.4297 33.2284 76.7734 34.2811 77.4395 35.0044C78.1055 35.7277 79.0436 36.0894 80.2539 36.0894C80.9987 36.0894 81.6576 36.0213 82.2305 35.8853C82.8034 35.7492 83.3978 35.5487 84.0137 35.2837V36.8521C83.4193 37.117 82.8285 37.3104 82.2412 37.4321C81.6611 37.5539 80.9736 37.6147 80.1787 37.6147C79.0472 37.6147 78.0589 37.3856 77.2139 36.9272C76.376 36.4618 75.7243 35.7814 75.2588 34.8862C74.7933 33.991 74.5605 32.8953 74.5605 31.5991C74.5605 30.3315 74.7718 29.2358 75.1943 28.312C75.624 27.381 76.2256 26.6649 76.999 26.1636C77.7796 25.6623 78.6963 25.4116 79.749 25.4116ZM79.7275 26.8726C78.7751 26.8726 78.016 27.1841 77.4502 27.8071C76.8844 28.4302 76.5479 29.3003 76.4404 30.4175H82.6709C82.6637 29.7157 82.5527 29.0998 82.3379 28.5698C82.1302 28.0327 81.8115 27.6174 81.3818 27.3237C80.9521 27.0229 80.4007 26.8726 79.7275 26.8726ZM100.603 25.4116C101.899 25.4116 102.876 25.7518 103.535 26.4321C104.194 27.1053 104.523 28.1903 104.523 29.687V37.3999H102.762V29.7729C102.762 28.8205 102.554 28.1079 102.139 27.6353C101.73 27.1554 101.122 26.9155 100.312 26.9155C99.1738 26.9155 98.3467 27.245 97.8311 27.9038C97.3154 28.5627 97.0576 29.533 97.0576 30.8149V37.3999H95.2852V29.7729C95.2852 29.1356 95.1921 28.6056 95.0059 28.1831C94.8268 27.7606 94.5547 27.4455 94.1895 27.2378C93.8314 27.0229 93.3766 26.9155 92.8252 26.9155C92.0446 26.9155 91.418 27.0767 90.9453 27.3989C90.4727 27.7212 90.1289 28.201 89.9141 28.8384C89.7064 29.4686 89.6025 30.2456 89.6025 31.1694V37.3999H87.8193V25.6265H89.2588L89.5273 27.2915H89.624C89.8604 26.8833 90.1576 26.5396 90.5156 26.2603C90.8737 25.981 91.2747 25.7697 91.7188 25.6265C92.1628 25.4832 92.6354 25.4116 93.1367 25.4116C94.0319 25.4116 94.7803 25.5799 95.3818 25.9165C95.9906 26.2459 96.431 26.7508 96.7031 27.4312H96.7998C97.1865 26.7508 97.7165 26.2459 98.3896 25.9165C99.0628 25.5799 99.8005 25.4116 100.603 25.4116Z" fill="#252A2E"/><path d="M510.5 55.3999H0.5V57.3999H510.5V55.3999Z" fill="#A3A6B1" mask="url(#path-1-inside-1_7345_83125)"/></svg>
